X: 13013
T: Fiji
R: jig
M: 6/8
K: Gmajor
dc|:(3Bcd B cAF|DGF GBc|dBd gdB|ceA edc|
(3Bcd B cAF|DGF Gge|fdB cAF|1 AGF G2 A:|2 AGF GBc||
|:dBd gfe|ded GBd|e^de age|(3fga d fed|
dBd gfe|dge dBG|cAF DFA|1 DGF GBc:|2 DGF G2 A||
|:BAB cAF|DGE DGA|BAB cAG|(3FGA D FED|
BAB cAF|DGF Gge|fdB cAF|1 AGF G2 A:|2 AGF G3||

